X:139
T:Merry Blacksmith
M:4/4
L:1/8
R:Reel
K:D
A2|d2 dA BAFA|ABdA BAFA|ABde f2 ed|Beed egfe|d2 dA BAFA|ABdA BAFA|ABde f
2 ec|dBAF D2:|
fg|a2 ag f2 fe|d2 dA BAFA|ABde f2 ed|Beed egfe|abag f2 fe|d2 dA BAFA|ABd
e f2 ec|dBAF D2:|
